X: 9453
T: Danse De Chez Nous
R: jig
M: 6/8
K: Gmajor
|:"G"g2B d2G|B3- B2G|DEF GAB|"Am"c3- c2d|"D7"e2A c2G|F3- F2d
fed cBA|1 "G"B3- B2:|2 "G"G6||
|:"G"DGB d2B|e2B dBG|DGB d2B|e2B "D7"cAF|DFA c2A|d2A cAF|
DFA cBA|1 "G"G3{Be}d3:|2 "G"G3{Bd}g3||

